assets/Roller skate/Flat/roller_skate_flat.svg

<svg width="32" height="32" viewBox="0 0 32 32" fill="none" xmlns="http://www.w3.org/2000/svg">
<path d="M26.2479 22C26.9788 22 27.6095 21.5139 27.8698 20.8658C27.9499 20.6633 28 20.4405 28 20.2076V18L15.5 16.5L3 18V20.2076C3 20.4405 3.05006 20.6633 3.13016 20.8658C3.39047 21.5443 4.04125 22 4.80216 22" fill="#433B6B"/>
<path d="M28.0407 24H3.95934C3.43073 24 3 23.551 3 23C3 22.449 3.43073 22 3.95934 22H28.0407C28.5693 22 29 22.449 29 23C29 23.551 28.5693 24 28.0407 24Z" fill="#9B9B9B"/>
<path d="M12 26.5C12 28.433 10.433 30 8.5 30C6.567 30 5 28.433 5 26.5C5 24.567 6.567 23 8.5 23C10.433 23 12 24.567 12 26.5ZM27 26.5C27 28.433 25.433 30 23.5 30C21.567 30 20 28.433 20 26.5C20 24.567 21.567 23 23.5 23C25.433 23 27 24.567 27 26.5Z" fill="#CA0B4A"/>
<path d="M10 26.5C10 27.3284 9.32842 28 8.5 28C7.67157 28 7 27.3284 7 26.5C7 25.6716 7.67157 25 8.5 25C9.32842 25 10 25.6716 10 26.5ZM25 26.5C25 27.3284 24.3284 28 23.5 28C22.6716 28 22 27.3284 22 26.5C22 25.6716 22.6716 25 23.5 25C24.3284 25 25 25.6716 25 26.5Z" fill="#D3D3D3"/>
<path d="M10.9258 3V4.99609C10.1445 5.80469 9.89844 6.05078 9 6.91016H3V8.34783V18H28C28 13.7057 22.2431 12.7726 21.0517 12.1003C20.6712 11.8896 18.869 10.9967 18.7389 9.96321C18.5787 8.76923 18.2383 5.19733 18.2383 5.19733C17.978 3.91305 16.9267 3 15.7153 3H10.9258Z" fill="#F92F60"/>
<path d="M5.57745 3.00964C5.48823 3.00964 5.40893 3.02891 5.31971 3.02891C4.01116 3.15422 3 4.02169 3 5.10121V5.6988V7H9.16605C10.1772 7 11 6.34458 11 5.53494V3H5.57745V3.00964Z" fill="#321B41"/>
<path d="M16.4579 8H18.5421C18.7944 8 19 7.77551 19 7.5C19 7.22449 18.7944 7 18.5421 7H16.4579C16.2056 7 16 7.22449 16 7.5C16 7.77551 16.2056 8 16.4579 8Z" fill="#321B41"/>
<path d="M16.4579 10H18.5421C18.7944 10 19 9.77551 19 9.5C19 9.22449 18.7944 9 18.5421 9H16.4579C16.2056 9 16 9.22449 16 9.5C16 9.77551 16.2056 10 16.4579 10Z" fill="#321B41"/>
</svg>

<svg xmlns="http://www.w3.org/2000/svg" width="32" height="32" fill="none"><path fill="#433B6B" d="M26.248 22c.73 0 1.361-.486 1.622-1.134.08-.203.13-.425.13-.658V18l-12.5-1.5L3 18v2.208c0 .233.05.455.13.658.26.678.911 1.134 1.672 1.134"/><path fill="#9B9B9B" d="M28.04 24H3.96c-.53 0-.96-.449-.96-1 0-.551.43-1 .96-1h24.08c.53 0 .96.449.96 1 0 .551-.43 1-.96 1Z"/><path fill="#CA0B4A" d="M12 26.5a3.5 3.5 0 1 1-7 0 3.5 3.5 0 0 1 7 0Zm15 0a3.5 3.5 0 1 1-7 0 3.5 3.5 0 0 1 7 0Z"/><path fill="#D3D3D3" d="M10 26.5a1.5 1.5 0 1 1-3 0 1.5 1.5 0 0 1 3 0Zm15 0a1.5 1.5 0 1 1-3 0 1.5 1.5 0 0 1 3 0Z"/><path fill="#F92F60" d="M10.926 3v1.996A52.732 52.732 0 0 1 9 6.91H3V18h25c0-4.294-5.757-5.227-6.948-5.9-.38-.21-2.183-1.103-2.313-2.137-.16-1.194-.5-4.766-.5-4.766C17.977 3.913 16.926 3 15.714 3h-4.79Z"/><path fill="#321B41" d="M5.577 3.01c-.089 0-.168.019-.257.019C4.01 3.154 3 4.022 3 5.1V7h6.166C10.177 7 11 6.345 11 5.535V3H5.577v.01ZM16.458 8h2.084c.252 0 .458-.224.458-.5s-.206-.5-.458-.5h-2.084c-.252 0-.458.224-.458.5s.206.5.458.5ZM16.458 10h2.084c.252 0 .458-.224.458-.5s-.206-.5-.458-.5h-2.084c-.252 0-.458.224-.458.5s.206.5.458.5Z"/></svg>
